origin.svg

<svg fill="currentColor" viewBox="0 0 24 24"><path d="M12 2.13c0 .1-.05.2-.11.28-.39.59-.73 1.23-.85 1.92l-.04.23 1-.06a7.5 7.5 0 0 1 7.5 7.5c0 1.62-.5 3.11-1.38 4.34-1.39 2.34-3.4 4.31-5.78 5.63-.09.03-.22.03-.28-.04-.06-.1-.06-.23.03-.32.38-.52.64-1.11.78-1.76l.06-.41-.93.06A7.5 7.5 0 0 1 4.5 12c0-1.61.5-3.11 1.38-4.33C7.26 5.32 9.28 3.34 11.67 2c.11-.05.27 0 .33.13M12 9a3 3 0 0 0-3 3 3 3 0 0 0 3 3 3 3 0 0 0 3-3 3 3 0 0 0-3-3"/></svg>

<svg  viewBox="0 0 24 24" fill="currentColor"><path  d="M12,2.13C12,2.23 11.95,2.33 11.89,2.41C11.5,3 11.16,3.64 11.04,4.33L11,4.56L12,4.5A7.5,7.5 0 0,1 19.5,12C19.5,13.62 19,15.11 18.12,16.34C16.73,18.68 14.72,20.65 12.34,21.97C12.25,22 12.12,22 12.06,21.93C12,21.83 12,21.7 12.09,21.61C12.47,21.09 12.73,20.5 12.87,19.85L12.93,19.44L12,19.5A7.5,7.5 0 0,1 4.5,12C4.5,10.39 5,8.89 5.88,7.67C7.26,5.32 9.28,3.34 11.67,2C11.78,1.95 11.94,2 12,2.13M12,9A3,3 0 0,0 9,12A3,3 0 0,0 12,15A3,3 0 0,0 15,12A3,3 0 0,0 12,9Z"/></svg>
